icons-rebrand/svg/file-annotation-filled.svg

<svg width="32" height="32" viewBox="0 0 32 32" fill="none" xmlns="http://www.w3.org/2000/svg">
<path fill-rule="evenodd" clip-rule="evenodd" d="M9 2.5H23C24.1931 2.50132 25.3369 2.97585 26.1805 3.81948C27.0241 4.66311 27.4987 5.80693 27.5 7V25C27.4987 26.1931 27.0241 27.3369 26.1805 28.1805C25.3369 29.0241 24.1931 29.4987 23 29.5H9C7.80693 29.4987 6.66311 29.0241 5.81948 28.1805C4.97585 27.3369 4.50132 26.1931 4.5 25V7C4.50132 5.80693 4.97585 4.66311 5.81948 3.81948C6.66311 2.97585 7.80693 2.50132 9 2.5ZM20.693 21.75C20.9135 21.611 21.1204 21.4517 21.311 21.274C21.4063 21.1836 21.5184 21.1128 21.641 21.0657C21.7637 21.0187 21.8944 20.9962 22.0257 20.9997C22.157 21.0031 22.2863 21.0324 22.4063 21.0858C22.5263 21.1392 22.6346 21.2157 22.725 21.311C22.8154 21.4063 22.8862 21.5184 22.9333 21.641C22.9803 21.7637 23.0028 21.8944 22.9993 22.0257C22.9959 22.157 22.9666 22.2863 22.9132 22.4063C22.8598 22.5263 22.7833 22.6346 22.688 22.725C22.0091 23.4439 21.0954 23.8962 20.112 24C19.8852 24.0035 19.6601 23.9605 19.4505 23.8739C19.2408 23.7872 19.0511 23.6586 18.893 23.496C18.03 22.632 18.641 21.368 19.289 20.029C19.426 19.744 19.627 19.329 19.78 18.955C19.335 19.274 18.81 19.701 18.432 20.008C16.712 21.408 15.087 22.729 13.94 21.581C12.878 20.517 14 18.964 15.424 17C16.1413 16.0883 16.7595 15.1027 17.268 14.06C16.118 14.47 13.265 16.902 10.739 19.673C10.606 19.8205 10.4321 19.9251 10.2394 19.9736C10.0468 20.0221 9.84409 20.0122 9.65707 19.9452C9.47006 19.8782 9.30718 19.7572 9.18912 19.5974C9.07105 19.4377 9.00314 19.2464 8.994 19.048C8.9886 18.916 9.00942 18.7842 9.05524 18.6603C9.10107 18.5364 9.171 18.4227 9.261 18.326C10.589 16.869 15.106 12.107 17.477 12.001C17.7083 11.9841 17.9407 12.0141 18.1601 12.0892C18.3795 12.1643 18.5815 12.2829 18.754 12.438C20.219 13.782 18.605 16.013 17.044 18.172L17.026 18.196C16.833 18.462 16.61 18.771 16.396 19.079C16.675 18.859 16.947 18.639 17.17 18.458C18.906 17.043 20.407 15.823 21.514 16.931C22.52 17.938 21.761 19.511 21.09 20.899C20.9513 21.1793 20.819 21.4627 20.693 21.749V21.75Z" fill="#0F0F0F"/>
</svg>

<svg id="Layer_1" data-name="Layer 1" xmlns="http://www.w3.org/2000/svg" viewBox="0 0 32 32"><defs><style>.cls-1{fill:#0f0f0f;fill-rule:evenodd;}</style></defs><path class="cls-1" d="M26.18,3.819A4.5,4.5,0,0,0,23,2.5H9A4.5,4.5,0,0,0,4.5,7V25A4.505,4.505,0,0,0,9,29.5H23A4.507,4.507,0,0,0,27.5,25V7A4.5,4.5,0,0,0,26.18,3.819ZM22.913,22.406a.994.994,0,0,1-.225.319A4.143,4.143,0,0,1,20.112,24a1.666,1.666,0,0,1-1.219-.5c-.863-.864-.252-2.128.4-3.467.137-.285.338-.7.491-1.074-.445.319-.97.746-1.348,1.053-1.72,1.4-3.345,2.721-4.492,1.573C12.878,20.517,14,18.964,15.424,17a16.322,16.322,0,0,0,1.844-2.94c-1.15.41-4,2.842-6.529,5.613a1,1,0,0,1-1.55-.076.994.994,0,0,1,.072-1.271c1.328-1.457,5.845-6.219,8.216-6.325a1.72,1.72,0,0,1,1.277.437c1.465,1.344-.149,3.575-1.71,5.734l-.018.024c-.193.266-.416.575-.63.883.279-.22.551-.44.774-.621,1.736-1.415,3.237-2.635,4.344-1.527,1.006,1.007.247,2.58-.424,3.968q-.208.42-.4.85h0a4.132,4.132,0,0,0,.618-.476A1,1,0,0,1,22.026,21a.98.98,0,0,1,.38.086,1,1,0,0,1,.593.94A.98.98,0,0,1,22.913,22.406Z"/></svg>
